X:1357
T:The First of March
R:Reel
N:Collected by McFadden
B:O'Neill's 1357
Z:Transcribed by Trish O'Neil
M:C|
L:1/8
K:G
age"Segno"|d2BG AGEF|G2dG Bdge|d2BG AGEA|1Bdgd efge:|2Bdgde2||
ef|g2Tgf gbag|fdad fdfa|g2Tgf gbaf|gfed Beef|
g2Tgf gbag|fdad fdfa|3gab ag 3fga ed|TBA 3Bcd efg"D.S."e|]
